src/amount-of-persons.svg

<?xml version="1.0" encoding="UTF-8"?>
<svg width="28px" height="28px" viewBox="0 0 28 28" version="1.1" xmlns="http://www.w3.org/2000/svg" xmlns:xlink="http://www.w3.org/1999/xlink">
    <!-- Uploaded to SVGRepo https://www.svgrepo.com -->
    <title>ic_fluent_people_28_filled</title>
    <desc>Created with Sketch.</desc>
    <g id="🔍-Product-Icons" stroke="none" stroke-width="1" fill="none" fill-rule="evenodd">
        <g id="ic_fluent_people_28_filled" fill="#212121" fill-rule="nonzero">
            <path d="M4,16 L15,16.001 C16.0538182,16.001 16.9181157,16.8164855 16.9945109,17.8516842 L17,18.001 L17,20.5 C16.999,24.7 12.713,26 9.5,26 C6.35126,26 2.1710504,24.75148 2.00510151,20.7485328 L2,20.5 L2,18 C2,16.9461818 2.81639669,16.0818843 3.85080841,16.0054891 L4,16 Z M17.22,16.001 L24,16 C25.0538182,16 25.9181157,16.8163967 25.9945109,17.8508084 L26,18 L26,20 C25.999,23.759 22.57,25 20,25 C18.942,25 17.741,24.785 16.691,24.275 C17.4432667,23.3808667 17.9315867,22.2428222 17.9933526,20.8112714 L18,20.5 L18,18.001 C18,17.2991818 17.7512397,16.6601736 17.3461307,16.1500909 L17.22,16.001 L24,16 L17.22,16.001 Z M9.5,3 C12.537,3 15,5.463 15,8.5 C15,11.537 12.537,14 9.5,14 C6.463,14 4,11.537 4,8.5 C4,5.463 6.463,3 9.5,3 Z M20.5,5 C22.985,5 25,7.015 25,9.5 C25,11.985 22.985,14 20.5,14 C18.015,14 16,11.985 16,9.5 C16,7.015 18.015,5 20.5,5 Z" id="🎨-Color"></path>
        </g>
    </g>
</svg>

<svg width="28" height="28" xmlns="http://www.w3.org/2000/svg"><path d="m4 16 11 .001a2 2 0 0 1 1.995 1.85l.005.15V20.5c-.001 4.2-4.287 5.5-7.5 5.5-3.149 0-7.329-1.249-7.495-5.251L2 20.5V18c0-1.054.816-1.918 1.85-1.995L4 16Zm13.22.001L24 16c1.054 0 1.918.816 1.995 1.85L26 18v2c-.001 3.759-3.43 5-6 5-1.058 0-2.259-.215-3.309-.725.752-.894 1.24-2.032 1.302-3.464L18 20.5v-2.499c0-.702-.249-1.34-.654-1.85L17.22 16 24 16l-6.78.001ZM9.5 3a5.5 5.5 0 1 1-.001 11.001A5.5 5.5 0 0 1 9.5 3Zm11 2a4.5 4.5 0 1 1 0 9 4.5 4.5 0 0 1 0-9Z" fill="#212121" fill-rule="nonzero"/></svg>
